packages/icons/src/card-right-arrow.svg

<svg width="24" height="24" viewBox="0 0 24 24" fill="none" xmlns="http://www.w3.org/2000/svg">
<path fill-rule="evenodd" clip-rule="evenodd" d="M21.9945 5.85074C21.9182 4.81588 21.0544 4 20 4H4L3.85074 4.00549C2.81588 4.08183 2 4.94564 2 6V18L2.00549 18.1493C2.08183 19.1841 2.94564 20 4 20H12V18H4V11H20V13H22V6L21.9945 5.85074ZM4 6H20V9H4V6Z" fill="black"/>
<path d="M10 15V13H6V15H10Z" fill="black"/>
<path d="M17.0503 14.8786L18.4645 13.4644L22 16.9999L18.4645 20.5354L17.0503 19.1212L18.172 17.9994L13.9645 17.9999V15.9999L18.172 15.9994L17.0503 14.8786Z" fill="black"/>
</svg>

<svg xmlns="http://www.w3.org/2000/svg" width="24" height="24" fill="none" viewBox="0 0 24 24">
  <path fill="#000" fill-rule="evenodd" d="M21.994 5.85A2 2 0 0 0 20 4H4l-.15.005A2 2 0 0 0 2 6v12l.005.15A2 2 0 0 0 4 20h8v-2H4v-7h16v2h2V6l-.006-.15ZM4 6h16v3H4V6Z" clip-rule="evenodd"/>
  <path fill="#000" d="M10 15v-2H6v2h4Zm7.05-.121 1.415-1.415L22 17l-3.535 3.535-1.415-1.414L18.172 18h-4.208v-2h4.208l-1.122-1.12Z"/>
</svg>
